Newaita-dark/mimetypes/32/office-contact.svg

<svg height="32pt" viewBox="0 0 32 32" width="32pt" xmlns="http://www.w3.org/2000/svg" xmlns:xlink="http://www.w3.org/1999/xlink"><linearGradient id="a" gradientUnits="userSpaceOnUse" x1="16.538045" x2="16.538045" y1="28.033934" y2="29.35697787502"><stop offset="0" stop-opacity=".27451"/><stop offset="1" stop-opacity="0"/></linearGradient><linearGradient id="b"><stop offset="0" stop-opacity=".313725"/><stop offset=".222222" stop-opacity=".27451"/><stop offset="1" stop-opacity="0"/></linearGradient><radialGradient id="c" cx="450.90894" cy="189.57936" gradientTransform="matrix(.00000017 -.0781325 -.140638 -.0000001 49.484568 63.595333)" gradientUnits="userSpaceOnUse" r="21.166656" xlink:href="#b"/><radialGradient id="d" cx="450.90894" cy="189.57936" gradientTransform="matrix(-.00000017 .0781325 .140638 .0000001 -18.393052 -7.52748)" gradientUnits="userSpaceOnUse" r="21.166656" xlink:href="#b"/><radialGradient id="e" cx="450.90894" cy="189.57936" gradientTransform="matrix(-.00000017 -.0781325 .140638 -.0000001 -18.393052 63.595333)" gradientUnits="userSpaceOnUse" r="21.166656" xlink:href="#b"/><radialGradient id="f" cx="450.90894" cy="189.57936" gradientTransform="matrix(.00000017 .0781325 -.140638 .0000001 49.484566 -7.527481)" gradientUnits="userSpaceOnUse" r="21.166656" xlink:href="#b"/><linearGradient id="g" gradientUnits="userSpaceOnUse" x1="15.54572" x2="15.54572" y1="28.0338647916" y2="2.89610346856"><stop offset="0" stop-color="#b0bec5"/><stop offset="1" stop-color="#cfd8dc"/></linearGradient><linearGradient id="h"><stop offset="0" stop-color="#78909c"/><stop offset="1" stop-color="#90a4ae"/></linearGradient><linearGradient id="i" gradientUnits="userSpaceOnUse" x1="12.134428" x2="12.134428" xlink:href="#h" y1="21.7494257916" y2="-3.38833553144"/><linearGradient id="j" gradientUnits="userSpaceOnUse" x1="370.41667" x2="370.41667" xlink:href="#h" y1="233.5" y2="-168.666668"/><linearGradient id="k" gradientUnits="userSpaceOnUse" x1="370.41667" x2="370.41667" xlink:href="#h" y1="233.49999" y2="-158.083334"/><linearGradient id="l" gradientUnits="userSpaceOnUse" x1="211.66665" x2="211.66665" xlink:href="#h" y1="233.500019" y2="-168.666651"/><linearGradient id="m" gradientUnits="userSpaceOnUse" x1="211.66665" x2="211.66665" xlink:href="#h" y1="233.500009" y2="-168.666661"/><linearGradient id="n" gradientUnits="userSpaceOnUse" x1="370.41665" x2="370.41665" xlink:href="#h" y1="233.500017" y2="-168.666653"/><linearGradient id="o" gradientUnits="userSpaceOnUse" x1="370.41665" x2="370.41665" xlink:href="#h" y1="233.500007" y2="-168.666663"/><path d="m7.9375 28.035156h15.214844v1.320313h-15.214844zm0 0" fill="url(#a)"/><path d="m23.152344 28.035156h2.648437v-1.324218h-2.648437zm0 0" fill="url(#c)"/><path d="m7.9375 28.035156h-2.644531v1.320313h2.644531zm0 0" fill="url(#d)"/><path d="m7.9375 28.035156h-2.644531v-1.324218h2.644531zm0 0" fill="url(#e)"/><path d="m23.152344 28.035156h2.648437v1.320313h-2.648437zm0 0" fill="url(#f)"/><path d="m6.613281 2.894531c-.730469 0-1.320312.589844-1.320312 1.324219v22.492188c0 .046874 0 .089843.007812.136718.066407.667969.628907 1.1875 1.3125 1.1875h17.863281c.734376 0 1.324219-.589844 1.324219-1.324218v-22.492188c0-.734375-.589843-1.324219-1.324219-1.324219zm0 0" fill="url(#g)"/><path d="m5.292969 26.195312v.515626c0 .734374.589843 1.324218 1.320312 1.324218h17.863281c.734376 0 1.324219-.589844 1.324219-1.324218v-.515626c0 .734376-.589843 1.324219-1.324219 1.324219h-17.863281c-.730469 0-1.320312-.589843-1.320312-1.324219zm0 0" fill-opacity=".235294"/><path d="m12.132812 5.210938c-1.28125 0-2.3125 1.03125-2.3125 2.316406 0 1.28125 1.03125 2.316406 2.3125 2.316406 1.285157 0 2.316407-1.035156 2.316407-2.316406 0-1.285156-1.03125-2.316406-2.316407-2.316406zm-1.753906 5.503906c-1.878906.472656-3.207031 1.675781-3.207031 3.097656v.660156h9.925781v-.660156c0-1.421875-1.328125-2.625-3.207031-3.097656-.519531.289062-1.117187.449218-1.757813.449218-.636718 0-1.234374-.160156-1.753906-.449218zm0 0" fill="url(#i)"/><path d="m6.613281 2.894531c-.730469 0-1.320312.589844-1.320312 1.324219v.660156c0-.730468.589843-1.320312 1.320312-1.320312h17.863281c.734376 0 1.324219.589844 1.324219 1.320312v-.660156c0-.734375-.589843-1.324219-1.324219-1.324219zm0 0" fill="#fff" fill-opacity=".392157"/><g stroke="#212121" stroke-linecap="round" stroke-linejoin="round"><path d="m399.883078 175.022658c-44.169011 0-79.834897 35.665886-79.834897 80.071095v1360.027622c0 2.834375 0 5.432552.472396 8.266927 4.015365 40.389844 38.027865 71.804167 79.362501 71.804167h1080.133086c44.405209 0 80.071095-35.665886 80.071095-80.071094v-1360.027622c0-44.405209-35.665886-80.071095-80.071095-80.071095zm0 0" fill="none" stroke-width="11.338583" transform="scale(.016538)"/><path d="m194.106464-131.632961c-20.498043 0-36.996467 16.498424-36.996467 37.058961 0 20.498042 16.498424 37.058961 36.996467 37.058961 20.560536 0 37.058961-16.560919 37.058961-37.058961 0-20.560537-16.498425-37.058961-37.058961-37.058961zm-28.059821 88.054091c-30.059629 7.561778-51.3076 26.80994-51.3076 49.557768v10.561491h158.797336v-10.561491c0-22.747828-21.247971-41.99599-51.307601-49.557768-8.311706 4.624558-17.873293 7.186814-28.122314 7.186814-10.186527 0-19.748114-2.562256-28.059821-7.186814zm0 0" fill="none" stroke-width="3" transform="matrix(.062506 0 0 .062506 0 13.438783)"/><path d="m280.473216-126.320968h95.240905c2.93722 0 5.311993 2.374773 5.311993 5.249498v10.623986c0 2.937219-2.374773 5.311992-5.311993 5.311992h-95.240905c-2.937219 0-5.311993-2.374773-5.311993-5.311992v-10.623986c0-2.874725 2.374774-5.249498 5.311993-5.249498zm0 0" fill="url(#j)" stroke-width="3" transform="matrix(.062506 0 0 .062506 0 13.438783)"/><path d="m280.473216-84.012509h95.240905c2.93722 0 5.311993 2.374774 5.311993 5.311993v10.561491c0 2.93722-2.374773 5.311993-5.311993 5.311993h-95.240905c-2.937219 0-5.311993-2.374773-5.311993-5.311993v-10.561491c0-2.937219 2.374774-5.311993 5.311993-5.311993zm0 0" fill="url(#k)" stroke-width="3" transform="matrix(.062506 0 0 .062506 0 13.438783)"/><path d="m121.738375 53.59935h95.240905c2.874725 0 5.249498 2.374773 5.249498 5.249499v10.623985c0 2.93722-2.374773 5.249499-5.249498 5.249499h-95.240905c-2.93722 0-5.311993-2.312279-5.311993-5.249499v-10.623985c0-2.874726 2.374773-5.249499 5.311993-5.249499zm0 0" fill="url(#l)" stroke-width="3" transform="matrix(.062506 0 0 .062506 0 13.438783)"/><path d="m121.738375 95.90781h95.240905c2.874725 0 5.249498 2.374773 5.249498 5.311993v10.561491c0 2.937219-2.374773 5.311993-5.249498 5.311993h-95.240905c-2.93722 0-5.311993-2.374774-5.311993-5.311993v-10.561491c0-2.93722 2.374773-5.311993 5.311993-5.311993zm0 0" fill="url(#m)" stroke-width="3" transform="matrix(.062506 0 0 .062506 0 13.438783)"/><path d="m280.473216 53.59935h95.240905c2.93722 0 5.311993 2.374773 5.311993 5.249499v10.623985c0 2.93722-2.374773 5.249499-5.311993 5.249499h-95.240905c-2.937219 0-5.311993-2.312279-5.311993-5.249499v-10.623985c0-2.874726 2.374774-5.249499 5.311993-5.249499zm0 0" fill="url(#n)" stroke-width="3" transform="matrix(.062506 0 0 .062506 0 13.438783)"/><path d="m280.473216 95.90781h95.240905c2.93722 0 5.311993 2.374773 5.311993 5.311993v10.561491c0 2.937219-2.374773 5.311993-5.311993 5.311993h-95.240905c-2.937219 0-5.311993-2.374774-5.311993-5.311993v-10.561491c0-2.93722 2.374774-5.311993 5.311993-5.311993zm0 0" fill="url(#o)" stroke-width="3" transform="matrix(.062506 0 0 .062506 0 13.438783)"/></g></svg>

<?xml version="1.0" encoding="UTF-8"?>
<svg xmlns="http://www.w3.org/2000/svg" xmlns:xlink="http://www.w3.org/1999/xlink" width="32pt" height="32pt" viewBox="0 0 32 32" version="1.1">
<defs>
<linearGradient id="linear0" gradientUnits="userSpaceOnUse" x1="254" y1="233.5" x2="254" y2="254.66667" gradientTransform="matrix(0.062506,0,0,0.062506,0.661521,13.438783)">
<stop offset="0" style="stop-color:rgb(0%,0%,0%);stop-opacity:0.27451;"/>
<stop offset="1" style="stop-color:rgb(0%,0%,0%);stop-opacity:0;"/>
</linearGradient>
<radialGradient id="radial0" gradientUnits="userSpaceOnUse" cx="450.90894" cy="189.57936" fx="450.90894" fy="189.57936" r="21.166656" gradientTransform="matrix(0.00000017417,-0.0781325,-0.140638,-0.000000101539,49.484568,63.595333)">
<stop offset="0" style="stop-color:rgb(0%,0%,0%);stop-opacity:0.313725;"/>
<stop offset="0.222222" style="stop-color:rgb(0%,0%,0%);stop-opacity:0.27451;"/>
<stop offset="1" style="stop-color:rgb(0%,0%,0%);stop-opacity:0;"/>
</radialGradient>
<radialGradient id="radial1" gradientUnits="userSpaceOnUse" cx="450.90894" cy="189.57936" fx="450.90894" fy="189.57936" r="21.166656" gradientTransform="matrix(-0.00000017417,0.0781325,0.140638,0.000000101539,-18.393052,-7.52748)">
<stop offset="0" style="stop-color:rgb(0%,0%,0%);stop-opacity:0.313725;"/>
<stop offset="0.222222" style="stop-color:rgb(0%,0%,0%);stop-opacity:0.27451;"/>
<stop offset="1" style="stop-color:rgb(0%,0%,0%);stop-opacity:0;"/>
</radialGradient>
<radialGradient id="radial2" gradientUnits="userSpaceOnUse" cx="450.90894" cy="189.57936" fx="450.90894" fy="189.57936" r="21.166656" gradientTransform="matrix(-0.00000017417,-0.0781325,0.140638,-0.000000101539,-18.393052,63.595333)">
<stop offset="0" style="stop-color:rgb(0%,0%,0%);stop-opacity:0.313725;"/>
<stop offset="0.222222" style="stop-color:rgb(0%,0%,0%);stop-opacity:0.27451;"/>
<stop offset="1" style="stop-color:rgb(0%,0%,0%);stop-opacity:0;"/>
</radialGradient>
<radialGradient id="radial3" gradientUnits="userSpaceOnUse" cx="450.90894" cy="189.57936" fx="450.90894" fy="189.57936" r="21.166656" gradientTransform="matrix(0.00000017417,0.0781325,-0.140638,0.000000101539,49.484566,-7.527481)">
<stop offset="0" style="stop-color:rgb(0%,0%,0%);stop-opacity:0.313725;"/>
<stop offset="0.222222" style="stop-color:rgb(0%,0%,0%);stop-opacity:0.27451;"/>
<stop offset="1" style="stop-color:rgb(0%,0%,0%);stop-opacity:0;"/>
</radialGradient>
<linearGradient id="linear1" gradientUnits="userSpaceOnUse" x1="940" y1="1695.1182" x2="940" y2="175.11812" gradientTransform="matrix(0.016538,0,0,0.016538,0,0)">
<stop offset="0" style="stop-color:rgb(69.019608%,74.509804%,77.254902%);stop-opacity:1;"/>
<stop offset="1" style="stop-color:rgb(81.176471%,84.705882%,86.27451%);stop-opacity:1;"/>
</linearGradient>
<linearGradient id="linear2" gradientUnits="userSpaceOnUse" x1="940" y1="1695.1182" x2="940" y2="175.11812" gradientTransform="matrix(0.016538,0,0,0.016538,-3.411292,-6.284439)">
<stop offset="0" style="stop-color:rgb(47.058824%,56.470588%,61.176471%);stop-opacity:1;"/>
<stop offset="1" style="stop-color:rgb(56.470588%,64.313725%,68.235294%);stop-opacity:1;"/>
</linearGradient>
<linearGradient id="linear3" gradientUnits="userSpaceOnUse" x1="254.00002" y1="413.41666" x2="254.00002" y2="11.249992" gradientTransform="matrix(1,0,0,1,116.41665,-179.91666)">
<stop offset="0" style="stop-color:rgb(47.058824%,56.470588%,61.176471%);stop-opacity:1;"/>
<stop offset="1" style="stop-color:rgb(56.470588%,64.313725%,68.235294%);stop-opacity:1;"/>
</linearGradient>
<linearGradient id="linear4" gradientUnits="userSpaceOnUse" x1="254.00002" y1="413.41666" x2="254.00002" y2="21.833336" gradientTransform="matrix(1,0,0,1,116.41665,-179.91667)">
<stop offset="0" style="stop-color:rgb(47.058824%,56.470588%,61.176471%);stop-opacity:1;"/>
<stop offset="1" style="stop-color:rgb(56.470588%,64.313725%,68.235294%);stop-opacity:1;"/>
</linearGradient>
<linearGradient id="linear5" gradientUnits="userSpaceOnUse" x1="254" y1="233.5" x2="254" y2="-168.66667" gradientTransform="matrix(1,0,0,1,-42.33335,0.0000193823)">
<stop offset="0" style="stop-color:rgb(47.058824%,56.470588%,61.176471%);stop-opacity:1;"/>
<stop offset="1" style="stop-color:rgb(56.470588%,64.313725%,68.235294%);stop-opacity:1;"/>
</linearGradient>
<linearGradient id="linear6" gradientUnits="userSpaceOnUse" x1="254" y1="233.5" x2="254" y2="-168.66667" gradientTransform="matrix(1,0,0,1,-42.33335,0.00000938232)">
<stop offset="0" style="stop-color:rgb(47.058824%,56.470588%,61.176471%);stop-opacity:1;"/>
<stop offset="1" style="stop-color:rgb(56.470588%,64.313725%,68.235294%);stop-opacity:1;"/>
</linearGradient>
<linearGradient id="linear7" gradientUnits="userSpaceOnUse" x1="254" y1="233.5" x2="254" y2="-168.66667" gradientTransform="matrix(1,0,0,1,116.41665,0.0000168392)">
<stop offset="0" style="stop-color:rgb(47.058824%,56.470588%,61.176471%);stop-opacity:1;"/>
<stop offset="1" style="stop-color:rgb(56.470588%,64.313725%,68.235294%);stop-opacity:1;"/>
</linearGradient>
<linearGradient id="linear8" gradientUnits="userSpaceOnUse" x1="254" y1="233.5" x2="254" y2="-168.66667" gradientTransform="matrix(1,0,0,1,116.41665,0.00000683919)">
<stop offset="0" style="stop-color:rgb(47.058824%,56.470588%,61.176471%);stop-opacity:1;"/>
<stop offset="1" style="stop-color:rgb(56.470588%,64.313725%,68.235294%);stop-opacity:1;"/>
</linearGradient>
</defs>
<g id="surface1">
<path style=" stroke:none;fill-rule:nonzero;fill:url(#linear0);" d="M 7.9375 28.035156 L 23.152344 28.035156 L 23.152344 29.355469 L 7.9375 29.355469 Z M 7.9375 28.035156 "/>
<path style=" stroke:none;fill-rule:nonzero;fill:url(#radial0);" d="M 23.152344 28.035156 L 25.800781 28.035156 L 25.800781 26.710938 L 23.152344 26.710938 Z M 23.152344 28.035156 "/>
<path style=" stroke:none;fill-rule:nonzero;fill:url(#radial1);" d="M 7.9375 28.035156 L 5.292969 28.035156 L 5.292969 29.355469 L 7.9375 29.355469 Z M 7.9375 28.035156 "/>
<path style=" stroke:none;fill-rule:nonzero;fill:url(#radial2);" d="M 7.9375 28.035156 L 5.292969 28.035156 L 5.292969 26.710938 L 7.9375 26.710938 Z M 7.9375 28.035156 "/>
<path style=" stroke:none;fill-rule:nonzero;fill:url(#radial3);" d="M 23.152344 28.035156 L 25.800781 28.035156 L 25.800781 29.355469 L 23.152344 29.355469 Z M 23.152344 28.035156 "/>
<path style=" stroke:none;fill-rule:nonzero;fill:url(#linear1);" d="M 6.613281 2.894531 C 5.882812 2.894531 5.292969 3.484375 5.292969 4.21875 L 5.292969 26.710938 C 5.292969 26.757812 5.292969 26.800781 5.300781 26.847656 C 5.367188 27.515625 5.929688 28.035156 6.613281 28.035156 L 24.476562 28.035156 C 25.210938 28.035156 25.800781 27.445312 25.800781 26.710938 L 25.800781 4.21875 C 25.800781 3.484375 25.210938 2.894531 24.476562 2.894531 Z M 6.613281 2.894531 "/>
<path style=" stroke:none;fill-rule:nonzero;fill:rgb(0%,0%,0%);fill-opacity:0.235294;" d="M 5.292969 26.195312 L 5.292969 26.710938 C 5.292969 27.445312 5.882812 28.035156 6.613281 28.035156 L 24.476562 28.035156 C 25.210938 28.035156 25.800781 27.445312 25.800781 26.710938 L 25.800781 26.195312 C 25.800781 26.929688 25.210938 27.519531 24.476562 27.519531 L 6.613281 27.519531 C 5.882812 27.519531 5.292969 26.929688 5.292969 26.195312 Z M 5.292969 26.195312 "/>
<path style=" stroke:none;fill-rule:nonzero;fill:url(#linear2);" d="M 12.132812 5.210938 C 10.851562 5.210938 9.820312 6.242188 9.820312 7.527344 C 9.820312 8.808594 10.851562 9.84375 12.132812 9.84375 C 13.417969 9.84375 14.449219 8.808594 14.449219 7.527344 C 14.449219 6.242188 13.417969 5.210938 12.132812 5.210938 Z M 10.378906 10.714844 C 8.5 11.1875 7.171875 12.390625 7.171875 13.8125 L 7.171875 14.472656 L 17.097656 14.472656 L 17.097656 13.8125 C 17.097656 12.390625 15.769531 11.1875 13.890625 10.714844 C 13.371094 11.003906 12.773438 11.164062 12.132812 11.164062 C 11.496094 11.164062 10.898438 11.003906 10.378906 10.714844 Z M 10.378906 10.714844 "/>
<path style=" stroke:none;fill-rule:nonzero;fill:rgb(100%,100%,100%);fill-opacity:0.392157;" d="M 6.613281 2.894531 C 5.882812 2.894531 5.292969 3.484375 5.292969 4.21875 L 5.292969 4.878906 C 5.292969 4.148438 5.882812 3.558594 6.613281 3.558594 L 24.476562 3.558594 C 25.210938 3.558594 25.800781 4.148438 25.800781 4.878906 L 25.800781 4.21875 C 25.800781 3.484375 25.210938 2.894531 24.476562 2.894531 Z M 6.613281 2.894531 "/>
<path style="fill:none;stroke-width:11.338583;stroke-linecap:round;stroke-linejoin:round;stroke:rgb(12.941176%,12.941176%,12.941176%);stroke-opacity:1;stroke-miterlimit:4;" d="M 399.883078 175.022658 C 355.714067 175.022658 320.048181 210.688544 320.048181 255.093753 L 320.048181 1615.121375 C 320.048181 1617.95575 320.048181 1620.553927 320.520577 1623.388302 C 324.535942 1663.778146 358.548442 1695.192469 399.883078 1695.192469 L 1480.016164 1695.192469 C 1524.421373 1695.192469 1560.087259 1659.526583 1560.087259 1615.121375 L 1560.087259 255.093753 C 1560.087259 210.688544 1524.421373 175.022658 1480.016164 175.022658 Z M 399.883078 175.022658 " transform="matrix(0.016538,0,0,0.016538,0,0)"/>
<path style="fill:none;stroke-width:3;stroke-linecap:round;stroke-linejoin:round;stroke:rgb(12.941176%,12.941176%,12.941176%);stroke-opacity:1;stroke-miterlimit:4;" d="M 194.106464 -131.632961 C 173.608421 -131.632961 157.109997 -115.134537 157.109997 -94.574 C 157.109997 -74.075958 173.608421 -57.515039 194.106464 -57.515039 C 214.667 -57.515039 231.165425 -74.075958 231.165425 -94.574 C 231.165425 -115.134537 214.667 -131.632961 194.106464 -131.632961 Z M 166.046643 -43.57887 C 135.987014 -36.017092 114.739043 -16.76893 114.739043 5.978898 L 114.739043 16.540389 L 273.536379 16.540389 L 273.536379 5.978898 C 273.536379 -16.76893 252.288408 -36.017092 222.228778 -43.57887 C 213.917072 -38.954312 204.355485 -36.392056 194.106464 -36.392056 C 183.919937 -36.392056 174.35835 -38.954312 166.046643 -43.57887 Z M 166.046643 -43.57887 " transform="matrix(0.062506,0,0,0.062506,0,13.438783)"/>
<path style="fill-rule:nonzero;fill:url(#linear3);stroke-width:3;stroke-linecap:round;stroke-linejoin:round;stroke:rgb(12.941176%,12.941176%,12.941176%);stroke-opacity:1;stroke-miterlimit:4;" d="M 280.473216 -126.320968 L 375.714121 -126.320968 C 378.651341 -126.320968 381.026114 -123.946195 381.026114 -121.07147 L 381.026114 -110.447484 C 381.026114 -107.510265 378.651341 -105.135492 375.714121 -105.135492 L 280.473216 -105.135492 C 277.535997 -105.135492 275.161223 -107.510265 275.161223 -110.447484 L 275.161223 -121.07147 C 275.161223 -123.946195 277.535997 -126.320968 280.473216 -126.320968 Z M 280.473216 -126.320968 " transform="matrix(0.062506,0,0,0.062506,0,13.438783)"/>
<path style="fill-rule:nonzero;fill:url(#linear4);stroke-width:3;stroke-linecap:round;stroke-linejoin:round;stroke:rgb(12.941176%,12.941176%,12.941176%);stroke-opacity:1;stroke-miterlimit:4;" d="M 280.473216 -84.012509 L 375.714121 -84.012509 C 378.651341 -84.012509 381.026114 -81.637735 381.026114 -78.700516 L 381.026114 -68.139025 C 381.026114 -65.201805 378.651341 -62.827032 375.714121 -62.827032 L 280.473216 -62.827032 C 277.535997 -62.827032 275.161223 -65.201805 275.161223 -68.139025 L 275.161223 -78.700516 C 275.161223 -81.637735 277.535997 -84.012509 280.473216 -84.012509 Z M 280.473216 -84.012509 " transform="matrix(0.062506,0,0,0.062506,0,13.438783)"/>
<path style="fill-rule:nonzero;fill:url(#linear5);stroke-width:3;stroke-linecap:round;stroke-linejoin:round;stroke:rgb(12.941176%,12.941176%,12.941176%);stroke-opacity:1;stroke-miterlimit:4;" d="M 121.738375 53.59935 L 216.97928 53.59935 C 219.854005 53.59935 222.228778 55.974123 222.228778 58.848849 L 222.228778 69.472834 C 222.228778 72.410054 219.854005 74.722333 216.97928 74.722333 L 121.738375 74.722333 C 118.801155 74.722333 116.426382 72.410054 116.426382 69.472834 L 116.426382 58.848849 C 116.426382 55.974123 118.801155 53.59935 121.738375 53.59935 Z M 121.738375 53.59935 " transform="matrix(0.062506,0,0,0.062506,0,13.438783)"/>
<path style="fill-rule:nonzero;fill:url(#linear6);stroke-width:3;stroke-linecap:round;stroke-linejoin:round;stroke:rgb(12.941176%,12.941176%,12.941176%);stroke-opacity:1;stroke-miterlimit:4;" d="M 121.738375 95.90781 L 216.97928 95.90781 C 219.854005 95.90781 222.228778 98.282583 222.228778 101.219803 L 222.228778 111.781294 C 222.228778 114.718513 219.854005 117.093287 216.97928 117.093287 L 121.738375 117.093287 C 118.801155 117.093287 116.426382 114.718513 116.426382 111.781294 L 116.426382 101.219803 C 116.426382 98.282583 118.801155 95.90781 121.738375 95.90781 Z M 121.738375 95.90781 " transform="matrix(0.062506,0,0,0.062506,0,13.438783)"/>
<path style="fill-rule:nonzero;fill:url(#linear7);stroke-width:3;stroke-linecap:round;stroke-linejoin:round;stroke:rgb(12.941176%,12.941176%,12.941176%);stroke-opacity:1;stroke-miterlimit:4;" d="M 280.473216 53.59935 L 375.714121 53.59935 C 378.651341 53.59935 381.026114 55.974123 381.026114 58.848849 L 381.026114 69.472834 C 381.026114 72.410054 378.651341 74.722333 375.714121 74.722333 L 280.473216 74.722333 C 277.535997 74.722333 275.161223 72.410054 275.161223 69.472834 L 275.161223 58.848849 C 275.161223 55.974123 277.535997 53.59935 280.473216 53.59935 Z M 280.473216 53.59935 " transform="matrix(0.062506,0,0,0.062506,0,13.438783)"/>
<path style="fill-rule:nonzero;fill:url(#linear8);stroke-width:3;stroke-linecap:round;stroke-linejoin:round;stroke:rgb(12.941176%,12.941176%,12.941176%);stroke-opacity:1;stroke-miterlimit:4;" d="M 280.473216 95.90781 L 375.714121 95.90781 C 378.651341 95.90781 381.026114 98.282583 381.026114 101.219803 L 381.026114 111.781294 C 381.026114 114.718513 378.651341 117.093287 375.714121 117.093287 L 280.473216 117.093287 C 277.535997 117.093287 275.161223 114.718513 275.161223 111.781294 L 275.161223 101.219803 C 275.161223 98.282583 277.535997 95.90781 280.473216 95.90781 Z M 280.473216 95.90781 " transform="matrix(0.062506,0,0,0.062506,0,13.438783)"/>
</g>
</svg>
